!!!COM: Robert Franz
!!!CNT: Deutscher
!!!TXO: Deutsche 
!!!OTL: Umsonst
!!!OPS: Op. 10
!!!ONM: No. 6
!!!ONB: Original key: D Major
!!!LYR: W. Osterwald
!!!ENC: Brian Bice
!!!YOR: Vocal Album, G. Schirmer, Inc., 1907
!!!ODT: 1860/
!!NB: Vocal melody and text only encoded.
**kern	**silbe
*clefG2	*
*k[b-e-a-d-g-]	*
*M2/4	*
=1	=1
4r	.
8r	.
{8a-	{Des
=2	=2
8a-	Wal-
8dd-	-des
(8cc	Sa2n-
dd-q	|
ccq	|
16b-)	|
16cc	-ger
=3	=3
4dd-	sin-
8a-	-gen,
8a-	die
=4	=4
8f	ro-
8a-	-the
8f-	Ro-
8a-	-se
=5	=5
4a-}	blu2ht,}
8r	.
{8a-	{die
=6	=6
8a-	Quel-
8dd-	-len
(8cc	rau-
dd-q	|
ccq)	|
16b-	-schen
16cc	und
=7	=7
4dd-	sprin-
8a-	-gen,
8a-	es
=8	=8
8f	ist
8a-	das
(16f-	al-
16a-)	|
8a-	-te
=9	=9
4a-}	Lied.}
8r	.
{8a-	{Das
=10	=10
8b-	klingt
8ee-	und
8a-	singt
8dd-	so
=11	=11
(8cc	se-
8dd-)	|
8a-	-lig
8a-	vom
=12	=12
16f	se-
16f	-li-
8a-	-gen,
16f-	lieb-
16f-	-li-
8a-	-chen
=13	=13
4a-}	Mai,}
8r	.
{8a-	{und
=14	=14
8b-	ma-
16cc-	-chet
16b-	mich
8ee-	doch
8dd-	nicht
=15	=15
(8ccn	fro2h-
8dd-)	|
8a-	-lich
8a-	die
=16	=16
16f	lu-
16f	-sti-
8a-	-ge
(16f-	Me-
16a-)	|
8a-	-lo-
=17	=17
4a-}	-dei.}
4r	.
*-	*-
